packages/elements/bolt-icon/src/svgs/support.svg

<svg enable-background="new 0 0 32 32" viewBox="0 0 32 32" xmlns="http://www.w3.org/2000/svg"><path clip-rule="evenodd" d="m23.7 18c.4-1.3.4-2.7 0-4h6.1c.1.7.2 1.3.2 2s-.1 1.3-.2 2zm-3.7 11.4v-6.5c1.2-.7 2.2-1.7 2.9-2.9h6.5c-1.3 4.5-4.9 8.1-9.4 9.4zm-2 .4c-.7.1-1.3.2-2 .2s-1.3-.1-2-.2v-6.1c1.3.4 2.7.4 4 0zm-6-.4c-4.5-1.3-8.1-4.9-9.4-9.4h6.5c.7 1.2 1.7 2.2 2.9 2.9zm-10-13.4c0-.7.1-1.3.2-2h6.1c-.4 1.3-.4 2.7 0 4h-6.1c-.1-.7-.2-1.3-.2-2zm10-13.4v6.5c-1.2.7-2.2 1.7-2.9 2.9h-6.5c1.3-4.5 4.9-8.1 9.4-9.4zm2-.4c.7-.1 1.3-.2 2-.2s1.3.1 2 .2v6.1c-1.3-.4-2.7-.4-4 0zm8 13.8c0 3.3-2.7 6-6 6s-6-2.7-6-6 2.7-6 6-6 6 2.7 6 6zm-2-13.4c4.5 1.3 8.1 4.9 9.4 9.4h-6.5c-.7-1.2-1.7-2.2-2.9-2.9zm-4-2.6c-8.8 0-16 7.2-16 16s7.2 16 16 16 16-7.2 16-16-7.2-16-16-16z" fill="#151619" fill-rule="evenodd"/></svg>

<?xml version="1.0" encoding="utf-8"?>
<!-- Generator: Adobe Illustrator 25.2.0, SVG Export Plug-In . SVG Version: 6.00 Build 0)  -->
<svg version="1.1" id="Layer_1" xmlns="http://www.w3.org/2000/svg" xmlns:xlink="http://www.w3.org/1999/xlink" x="0px" y="0px"
	 viewBox="0 0 32 32" style="enable-background:new 0 0 32 32;" xml:space="preserve">
<style type="text/css">
	.st0{fill-rule:evenodd;clip-rule:evenodd;fill:#151619;}
</style>
<path class="st0" d="M23.7,18c0.4-1.3,0.4-2.7,0-4h6.1c0.1,0.7,0.2,1.3,0.2,2c0,0.7-0.1,1.3-0.2,2H23.7z M20,29.4v-6.5
	c1.2-0.7,2.2-1.7,2.9-2.9h6.5C28.1,24.5,24.5,28.1,20,29.4z M18,29.8c-0.7,0.1-1.3,0.2-2,0.2c-0.7,0-1.3-0.1-2-0.2v-6.1
	c1.3,0.4,2.7,0.4,4,0V29.8z M12,29.4c-4.5-1.3-8.1-4.9-9.4-9.4h6.5c0.7,1.2,1.7,2.2,2.9,2.9V29.4z M2,16c0-0.7,0.1-1.3,0.2-2h6.1
	c-0.4,1.3-0.4,2.7,0,4H2.2C2.1,17.3,2,16.7,2,16z M12,2.6v6.5c-1.2,0.7-2.2,1.7-2.9,2.9H2.6C3.9,7.5,7.5,3.9,12,2.6z M14,2.2
	C14.7,2.1,15.3,2,16,2c0.7,0,1.3,0.1,2,0.2v6.1c-1.3-0.4-2.7-0.4-4,0V2.2z M22,16c0,3.3-2.7,6-6,6s-6-2.7-6-6s2.7-6,6-6
	S22,12.7,22,16z M20,2.6c4.5,1.3,8.1,4.9,9.4,9.4h-6.5c-0.7-1.2-1.7-2.2-2.9-2.9V2.6z M16,0C7.2,0,0,7.2,0,16s7.2,16,16,16
	s16-7.2,16-16l0,0C32,7.2,24.8,0,16,0z"/>
</svg>
